build/img/svg/radius-bottomleft.svg

<svg id="radius-bottomleft.svg" xmlns="http://www.w3.org/2000/svg" width="16" height="16" viewBox="0 0 16 16"><defs><style>.cls-1,.cls-2{fill:#5e5e5e;fill-rule:evenodd}.cls-2{fill:#2d6ec9}</style></defs><path class="cls-1" d="M19 17V5H7V4h13v13h-1z" transform="translate(-4 -4)"/><path class="cls-2" d="M4 4h16v16h-8a8 8 0 0 1-8-8V4zm3 0h13v13h-7a6 6 0 0 1-6-6V4z" transform="translate(-4 -4)"/></svg>

<svg id="radius-bottomleft.svg" xmlns="http://www.w3.org/2000/svg" width="16" height="16" viewBox="0 0 16 16">
  <defs>
    <style>
      .cls-1 {
        fill: #5e5e5e;
      }

      .cls-1, .cls-2 {
        fill-rule: evenodd;
      }

      .cls-2 {
        fill: #2d6ec9;
      }
    </style>
  </defs>
  <path class="cls-1" d="M19,17V5H7V4H20V17H19Z" transform="translate(-4 -4)"/>
  <path class="cls-2" d="M4,4H20V20H12a8,8,0,0,1-8-8V4ZM7,4H20V17H13a6,6,0,0,1-6-6V4Z" transform="translate(-4 -4)"/>
</svg>
